interact/assets/img/icon-gift.svg

<svg width="53" height="50" viewBox="0 0 53 50" fill="none" xmlns="http://www.w3.org/2000/svg">
<path d="M47.3684 10.5263H41.6316C41.9211 9.71053 42.1053 8.81579 42.1053 7.89474C42.1053 3.52632 38.5789 0 34.2105 0C31.4474 0 29.0526 1.42105 27.6316 3.55263L26.3158 5.31579L25 3.52632C23.5789 1.42105 21.1842 0 18.4211 0C14.0526 0 10.5263 3.52632 10.5263 7.89474C10.5263 8.81579 10.7105 9.71053 11 10.5263H5.26316C2.34211 10.5263 0.0263158 12.8684 0.0263158 15.7895L0 44.7368C0 47.6579 2.34211 50 5.26316 50H47.3684C50.2895 50 52.6316 47.6579 52.6316 44.7368V15.7895C52.6316 12.8684 50.2895 10.5263 47.3684 10.5263ZM34.2105 5.26316C35.6579 5.26316 36.8421 6.44737 36.8421 7.89474C36.8421 9.34211 35.6579 10.5263 34.2105 10.5263C32.7632 10.5263 31.5789 9.34211 31.5789 7.89474C31.5789 6.44737 32.7632 5.26316 34.2105 5.26316ZM18.4211 5.26316C19.8684 5.26316 21.0526 6.44737 21.0526 7.89474C21.0526 9.34211 19.8684 10.5263 18.4211 10.5263C16.9737 10.5263 15.7895 9.34211 15.7895 7.89474C15.7895 6.44737 16.9737 5.26316 18.4211 5.26316ZM47.3684 44.7368H5.26316V39.4737H47.3684V44.7368ZM47.3684 31.5789H5.26316V15.7895H18.6316L13.1579 23.2368L17.4211 26.3158L23.6842 17.7895L26.3158 14.2105L28.9474 17.7895L35.2105 26.3158L39.4737 23.2368L34 15.7895H47.3684V31.5789Z" fill="#C09186"/>
</svg>

<?xml version="1.0" encoding="utf-8"?>
<!-- Generator: Adobe Illustrator 16.0.0, SVG Export Plug-In . SVG Version: 6.00 Build 0)  -->
<!DOCTYPE svg PUBLIC "-//W3C//DTD SVG 1.1//EN" "http://www.w3.org/Graphics/SVG/1.1/DTD/svg11.dtd">
<svg version="1.1" id="Layer_1" xmlns="http://www.w3.org/2000/svg" xmlns:xlink="http://www.w3.org/1999/xlink" x="0px" y="0px"
	 width="53px" height="50px" viewBox="0 0 53 50" enable-background="new 0 0 53 50" xml:space="preserve">
<path d="M47.368,10.526h-5.736c0.289-0.816,0.474-1.71,0.474-2.632C42.105,3.526,38.579,0,34.211,0
	c-2.764,0-5.158,1.421-6.579,3.553l-1.316,1.763L25,3.526C23.579,1.421,21.184,0,18.421,0c-4.368,0-7.895,3.526-7.895,7.895
	c0,0.921,0.184,1.816,0.474,2.632H5.263c-2.921,0-5.237,2.342-5.237,5.263L0,44.736C0,47.658,2.342,50,5.263,50h42.105
	c2.921,0,5.264-2.342,5.264-5.264V15.79C52.632,12.869,50.289,10.526,47.368,10.526z M34.211,5.263c1.447,0,2.631,1.184,2.631,2.631
	c0,1.448-1.184,2.632-2.631,2.632s-2.632-1.184-2.632-2.632C31.579,6.447,32.764,5.263,34.211,5.263z M18.421,5.263
	c1.447,0,2.632,1.184,2.632,2.631c0,1.448-1.185,2.632-2.632,2.632S15.79,9.342,15.79,7.895C15.79,6.447,16.974,5.263,18.421,5.263z
	 M47.368,44.736H5.263v-5.263h42.105V44.736z M47.368,31.579H5.263V15.79h13.369l-5.474,7.447l4.263,3.08l6.263-8.527l2.632-3.579
	l2.631,3.579l6.264,8.527l4.263-3.08L34,15.79h13.368V31.579z"/>
</svg>
